X: 16614
T: Handsome Young Maidens, The
R: jig
M: 6/8
K: Gmajor
|:gdc BcA|GBd gfg|add cdd|Add agf|
gdc BcA|GBd gfg|afd cAD|AGF G2f:|
|:B2G DGB|cee edc|Bcd gdB|Aee edc|
B2G DGB|cee edc|Bcd gdB|cAd G2A:|

